source/img/page-logotype-main.svg

<svg width="282" height="49" viewBox="0 0 282 49" fill="none" xmlns="http://www.w3.org/2000/svg">
<path d="M27.1874 13.3723C24.978 11.5378 22.2163 10.3148 19.2705 10.3148C17.0612 10.3148 14.1767 11.5989 14.1767 14.1672C14.1767 16.8578 17.4294 17.8973 19.4546 18.5088L22.5232 19.426C28.9058 21.3216 33.8768 24.5014 33.8768 31.9005C33.8768 36.4255 32.7721 41.134 29.1513 44.1915C25.5304 47.2489 20.7434 48.4719 16.1406 48.4719C10.3717 48.4719 4.6642 46.5151 0 43.2742L4.97106 33.7961C7.97824 36.4255 11.4764 38.5046 15.5882 38.5046C18.4113 38.5046 21.3571 37.0981 21.3571 33.9184C21.3571 30.5552 16.6929 29.4545 14.1153 28.7207C6.62807 26.5193 1.71839 24.6237 1.71839 15.7571C1.71839 6.46239 8.34646 0.408615 17.5521 0.408615C22.155 0.408615 27.8625 1.8762 31.913 4.19987L27.1874 13.3723Z" fill="white"/>
<path d="M56.2158 11.6602V19.3038H69.6561V29.3935H56.2158V37.2817H70.4539V47.3713H44.3098V1.63171H70.4539V11.7213L56.2158 11.6602Z" fill="white"/>
<path d="M79.2914 1.63171H96.2298C108.995 1.63171 119.551 11.6602 119.551 24.5015C119.551 37.3429 108.934 47.3713 96.2298 47.3713H79.2914V1.63171ZM91.2587 37.2817H93.9591C101.078 37.2817 107.154 33.3682 107.154 24.5015C107.154 16.3075 101.753 11.7213 94.0818 11.7213H91.2587V37.2817Z" fill="white"/>
<path d="M175.951 23.6453C175.951 38.4434 165.272 48.8999 150.543 48.8999C135.814 48.8999 125.136 38.4434 125.136 23.6453C125.136 9.82554 137.348 0.102814 150.543 0.102814C163.738 0.102814 175.951 9.82554 175.951 23.6453ZM137.533 23.7064C137.533 31.5947 143.363 37.3427 150.482 37.3427C157.601 37.3427 163.431 31.5947 163.431 23.7064C163.431 17.408 157.601 11.5989 150.482 11.5989C143.424 11.5989 137.533 17.408 137.533 23.7064Z" fill="white"/>
<path d="M182.272 1.63171H194.239L216.087 29.6381H216.21V1.63171H228.178V47.3713H216.21L194.362 19.3038H194.239V47.3713H182.272V1.63171Z" fill="white"/>
<path d="M249.842 39.4219L246.65 47.3713H234.008L251.683 1.63171H264.693L282 47.3713H269.296L266.289 39.4219H249.842ZM258.188 15.7572H258.065L253.156 30.3107H263.098L258.188 15.7572Z" fill="white"/>
</svg>

<svg width="282" height="49" viewBox="0 0 282 49" fill="none" xmlns="http://www.w3.org/2000/svg">
  <path d="M27.19 13.37a12.52 12.52 0 00-7.92-3.06c-2.2 0-5.1 1.29-5.1 3.86 0 2.69 3.26 3.73 5.28 4.34l3.07.92c6.39 1.9 11.36 5.07 11.36 12.47 0 4.53-1.1 9.23-4.73 12.3-3.62 3.05-8.4 4.27-13 4.27A28.64 28.64 0 010 43.27l4.97-9.47c3 2.63 6.5 4.7 10.62 4.7 2.82 0 5.77-1.4 5.77-4.58 0-3.36-4.67-4.47-7.24-5.2-7.5-2.2-12.4-4.1-12.4-12.96C1.72 6.46 8.35.4 17.55.4c4.6 0 10.31 1.47 14.36 3.79l-4.72 9.17zM56.22 11.66v7.64h13.44v10.1H56.22v7.88h14.23v10.1H44.31V1.62h26.14v10.1l-14.23-.07zM79.3 1.63h16.93c12.77 0 23.32 10.03 23.32 22.87 0 12.84-10.62 22.87-23.32 22.87H79.29V1.63zm11.96 35.65h2.7c7.12 0 13.2-3.91 13.2-12.78 0-8.2-5.4-12.78-13.08-12.78h-2.82v25.56zM175.95 23.65c0 14.8-10.68 25.25-25.4 25.25-14.74 0-25.41-10.46-25.41-25.25 0-13.82 12.2-23.55 25.4-23.55s25.41 9.73 25.41 23.55zm-38.42.06c0 7.88 5.83 13.63 12.95 13.63 7.12 0 12.95-5.75 12.95-13.63 0-6.3-5.83-12.11-12.95-12.11-7.06 0-12.95 5.8-12.95 12.1zM182.27 1.63h11.97l21.85 28h.12v-28h11.97v45.74H216.2L194.36 19.3h-.12v28.07h-11.97V1.63zM249.84 39.42l-3.19 7.95h-12.64l17.67-45.74h13.01L282 47.37h-12.7l-3.01-7.95h-16.45zm8.35-23.66h-.13l-4.9 14.55h9.94l-4.91-14.55z" fill="#fff"/>
</svg>
